images/item-team-img5.svg

<svg width="40" height="40" viewBox="0 0 40 40" fill="none" xmlns="http://www.w3.org/2000/svg">
<g id="heart 1">
<g id="Group">
<g id="Group_2">
<g id="Group_3">
<g id="Group_4">
<g id="Group_5">
<g id="Group_6">
<path id="Vector" d="M13.3651 29.7619L13.4281 29.3039C13.5918 28.1125 12.9585 26.9548 11.8746 26.4645L7.63496 24.5468C6.7966 24.1676 6.36692 23.2161 6.63168 22.3251C6.9409 21.285 8.06402 20.7378 9.05863 21.1429L14.9979 23.5618C16.5672 24.2011 17.6288 25.7041 17.7198 27.4158L17.9604 34.8578H11.6288C11.5104 33.7761 10.9294 32.7976 10.0346 32.1854L3.95629 28.0263C2.93121 27.3249 2.24918 26.2145 2.08066 24.9727L0.799649 15.0611C0.666602 14.0809 1.26731 13.1514 2.20699 12.8833C3.28106 12.5769 4.38996 13.242 4.64191 14.3436L6.5541 22.8834" stroke="#1E8E31" stroke-width="1.5625" stroke-miterlimit="10" stroke-linecap="round" stroke-linejoin="round"/>
</g>
</g>
</g>
</g>
<g id="Group_7">
<g id="Group_8">
<g id="Group_9">
<g id="Group_10">
<path id="Vector_2" d="M26.6345 29.7657L26.5715 29.3078C26.4077 28.1163 27.0411 26.9586 28.125 26.4683L32.3645 24.5507C33.2029 24.1714 33.6326 23.2199 33.3678 22.3289C33.0587 21.2888 31.9355 20.7416 30.9409 21.1467L25.0016 23.5657C23.4323 24.2049 22.3707 25.7079 22.2796 27.4197L22.0391 34.8616H28.3706C28.4891 33.7799 29.07 32.8014 29.9648 32.1892L36.0432 28.0301C37.0683 27.3287 37.7503 26.2183 37.9188 24.9765L39.1998 15.065C39.3328 14.0848 38.7321 13.1554 37.7924 12.8872C36.7184 12.5808 35.6095 13.2459 35.3575 14.3475L33.445 22.9019" stroke="#1E8E31" stroke-width="1.5625" stroke-miterlimit="10" stroke-linecap="round" stroke-linejoin="round"/>
</g>
</g>
</g>
</g>
</g>
<path id="Vector_3" d="M20.7491 6.5778L20.0003 7.32663L19.2516 6.57788C17.3353 4.66163 14.2284 4.66163 12.3122 6.57788C10.3959 8.49413 10.3959 11.601 12.3122 13.5173L18.183 19.3882C19.1867 20.3919 20.814 20.3919 21.8177 19.3882L27.6885 13.5173C29.6048 11.6011 29.6048 8.49421 27.6885 6.57788C25.7722 4.66155 22.6653 4.66155 20.7491 6.5778Z" stroke="#1E8E31" stroke-width="1.5625" stroke-miterlimit="10" stroke-linecap="round" stroke-linejoin="round"/>
</g>
</g>
</svg>

<svg xmlns="http://www.w3.org/2000/svg" width="40" height="40" fill="none"><path stroke="#1E8E31" stroke-linecap="round" stroke-linejoin="round" stroke-miterlimit="10" stroke-width="1.563" d="m13.365 29.762.063-.458a2.708 2.708 0 0 0-1.553-2.84l-4.24-1.917a1.857 1.857 0 0 1-1.003-2.222 1.819 1.819 0 0 1 2.427-1.182l5.939 2.419a4.406 4.406 0 0 1 2.722 3.854l.24 7.442H11.63a3.728 3.728 0 0 0-1.594-2.673l-6.079-4.159a4.417 4.417 0 0 1-1.875-3.053L.8 15.06a1.982 1.982 0 0 1 1.407-2.178 1.954 1.954 0 0 1 2.435 1.46l1.912 8.54M26.634 29.766l-.063-.458a2.708 2.708 0 0 1 1.554-2.84l4.24-1.917a1.857 1.857 0 0 0 1.003-2.222 1.819 1.819 0 0 0-2.427-1.182L25 23.566a4.406 4.406 0 0 0-2.721 3.854l-.24 7.442h6.33c.12-1.082.7-2.06 1.595-2.673l6.078-4.159a4.417 4.417 0 0 0 1.876-3.053l1.28-9.912a1.982 1.982 0 0 0-1.407-2.178 1.954 1.954 0 0 0-2.434 1.46l-1.913 8.555M20.75 6.578l-.75.749-.748-.75a4.907 4.907 0 0 0-6.94 6.94l5.871 5.871a2.57 2.57 0 0 0 3.635 0l5.87-5.87a4.907 4.907 0 1 0-6.939-6.94Z"/></svg>
